Origami/48x48/apps/league-of-legends.svg

<svg width="48" height="48" version="1.1" viewBox="0 0 48 48" xmlns="http://www.w3.org/2000/svg">
 <path d="m24 4a20 20 0 0 0 -20 20 20 20 0 0 0 20 20 20 20 0 0 0 20 -20 20 20 0 0 0 -20 -20z" fill="#c88937"/>
 <path d="m4.0215 24.418a20 20 0 0 0 -0.0215 0.582 20 20 0 0 0 20 20 20 20 0 0 0 20 -20 20 20 0 0 0 -0.021 -0.418 20 20 0 0 1 -19.979 19.418 20 20 0 0 1 -19.978 -19.582z" opacity=".2"/>
 <path d="m24 4a20 20 0 0 0 -20 20 20 20 0 0 0 0.0215 0.418 20 20 0 0 1 19.978 -19.418 20 20 0 0 1 19.979 19.582 20 20 0 0 0 0.021 -0.582 20 20 0 0 0 -20 -20z" fill="#ffffff" opacity=".2"/>
 <path d="m14.666667 15h8.666666l-2.333333 2v13l2.333333 1 6.666667-1 4-3.125-2 8.125h-18l3-1.875v-16.125z" style="fill-rule:evenodd;opacity:.2"/>
 <path d="m14.666667 14h8.666666l-2.333333 2v13l2.333333 1 6.666667-1 4-3.125-2 8.125h-18l3-1.875v-16.125z" style="fill-rule:evenodd;fill:#ffffff"/>
</svg>

<svg xmlns="http://www.w3.org/2000/svg" width="48" height="48" version="1.1" viewBox="0 0 48 48">
 <path fill="#c88937" d="m24 4a20 20 0 0 0 -20 20 20 20 0 0 0 20 20 20 20 0 0 0 20 -20 20 20 0 0 0 -20 -20z"/>
 <path opacity=".2" d="m4.0215 24.418a20 20 0 0 0 -0.0215 0.582 20 20 0 0 0 20 20 20 20 0 0 0 20 -20 20 20 0 0 0 -0.021 -0.418 20 20 0 0 1 -19.979 19.418 20 20 0 0 1 -19.978 -19.582z"/>
 <path fill="#ffffff" opacity=".2" d="m24 4a20 20 0 0 0 -20 20 20 20 0 0 0 0.0215 0.418 20 20 0 0 1 19.978 -19.418 20 20 0 0 1 19.979 19.582 20 20 0 0 0 0.021 -0.582 20 20 0 0 0 -20 -20z"/>
 <path style="opacity:0.2;fill-rule:evenodd" d="m 14.666667,15 h 8.666666 L 21,17 V 30 L 23.333333,31 30,30 34,26.875 32,35 H 14 l 3,-1.875 V 17 Z"/>
 <path style="fill:#ffffff;fill-rule:evenodd" d="m 14.666667,14 h 8.666666 L 21,16 V 29 L 23.333333,30 30,29 34,25.875 32,34 H 14 l 3,-1.875 V 16 Z"/>
</svg>
